assets/images/favicon.svg

<svg height="256" viewBox="0 0 100 100" width="256" xmlns="http://www.w3.org/2000/svg"><rect fill="#121212" height="100" rx="50" width="100"/><path d="m34.16 22.42h32.4q2.07 1.17 2.07 3.6 0 1.8-.99 3.78l-22.59 47.7q-.54.09-1.03.09-.5 0-1.04 0-1.8 0-3.02-.86-1.21-.85-1.21-2.39 0-1.07.41-2.11.4-1.03 1.12-2.39l20.34-41.3h-28.44q-.27-.45-.54-1.17-.27-.72-.27-1.71 0-1.53.72-2.39.72-.85 2.07-.85z" fill="#fff"/></svg>

<svg xmlns="http://www.w3.org/2000/svg" width="256" height="256" viewBox="0 0 100 100"><rect width="100" height="100" rx="50" fill="#121212"></rect><path fill="#fff" d="M34.16 22.42L66.56 22.42Q68.63 23.59 68.63 26.02L68.63 26.02Q68.63 27.82 67.64 29.80L67.64 29.80L45.05 77.50Q44.51 77.59 44.02 77.59Q43.52 77.59 42.98 77.59L42.98 77.59Q41.18 77.59 39.96 76.73Q38.75 75.88 38.75 74.34L38.75 74.34Q38.75 73.27 39.16 72.23Q39.56 71.20 40.28 69.84L40.28 69.84L60.62 28.54L32.18 28.54Q31.91 28.09 31.64 27.37Q31.37 26.65 31.37 25.66L31.37 25.66Q31.37 24.13 32.09 23.27Q32.81 22.42 34.16 22.42L34.16 22.42Z"></path></svg>
